X:13
T: dr alt Sachsler  Bb (trad.)
T:Dirigenten-Notiz, Edi Gasser. 
C:Unterwalden (CH)
C:
%%partsbox
M:2/4
%Q:1/4=110
R:Naturjuiz
L:1/4
K:Bb
[P:A]  F | BF | dF | d c/B/ | AF | e d/F/ | c>B | AF | eF | 
c d/c/ | BF | d/F/ d/c/ | (B2 | !breath!B)F | BF | dF | d/c/ B | 
AF | e d/f/ | c>B | AF | eF | c d/c/ | (B2 | B) || 
[P:B] F =E/F/ | Ge | df | cf | BF | df | B c/B/ | AF | 
ef | Ac | (B2 | B)z | F =E/F/ | Ge | df | cf | 
BF | df | B c/B/ | AF | ef | Ac | (B2 | B)z |]  
W: Parts: A-B-A-B
W:
W: UJV-Naturjodelsammlung: Code-Nr: 00-06
W:http://www.naturjodler.ch/tradition-1.htm  (with AUDIO)
%April 21, 2018

